storage/app/icons/phosphoricons/bold/person-simple-tai-chi-bold.svg

<svg xmlns="http://www.w3.org/2000/svg" fill="currentColor" viewBox="0 0 256 256"><path d="M128 84a36 36 0 1 0-36-36 36 36 0 0 0 36 36m0-48a12 12 0 1 1-12 12 12 12 0 0 1 12-12m100 72a12 12 0 0 1-12 12h-76v16.09L188.73 157a12 12 0 0 1 7.27 11v48a12 12 0 0 1-24 0v-40.09l-41.67-17.86L56 224.92a12 12 0 0 1-16-17.84l76-68.42V120H40a12 12 0 0 1 0-24h176a12 12 0 0 1 12 12"/></svg>

<svg xmlns="http://www.w3.org/2000/svg" viewBox="0 0 256 256" fill="currentColor"><path d="M128,84A36,36,0,1,0,92,48,36,36,0,0,0,128,84Zm0-48a12,12,0,1,1-12,12A12,12,0,0,1,128,36Zm100,72a12,12,0,0,1-12,12H140v16.09L188.73,157A12,12,0,0,1,196,168v48a12,12,0,0,1-24,0V175.91l-41.67-17.86L56,224.92A12,12,0,0,1,40,207.08l76-68.42V120H40a12,12,0,0,1,0-24H216A12,12,0,0,1,228,108Z"/></svg>
